X:11
T:The Irish Girl
R:slip jig
S:Mike Long
O:Ireland
M:9/8
L:1/8
K:D
"A" c2 A AEA AEA | "A" cBc Ace "G" dcB  | "A" ~c2 A AEA AEA | "G" BAB deg dBG :|
"A" cde efd e2 d | "A" cde efd "G" ged | "A" cde efd efg |1 "D" agf "G" {a}gfe dcB :|2 "D" agf {a}gfe ded |]
